X:76
T:Heaving the Lead. JJo.076
S:J.Jones MS,1801,N.Shrops.
N:Some errors in bar lengths. I have corrected obvious omissions of barlines,
N:but otherwise left ‘as is’. Sounds as though the tune should be fairly freely
N:played.
A:N Shropshire
Z:Neil Brookes 2006
M:4/4
L:1/8
Q:1/4=140
K:C
c>d|e2e2d2f>d|c2B2c2zG|cd ef g3g|aTb Tc’a{f}g2zg|!
c’2ba2g|fe dc {c}B2zd|g2g2ea bc’|g2T=f3g2z|!
gc’2c’c’b2b|ba a2{a}g2zg|ge2afd2g|ec^fg4|!
ccd2d4|e>ef2e3e/|da gf fe ge|da gf fe ge|!
fe de fe fg|ag ab c’4|e2f{e}d4|c3|]

